X: 100328
T: BOB, THE SAILOR, HORNPIPE
R: hornpipe, reel
B: K\"ohler's Violin Repository, v.3, 1885 p.232 #1
F: http://www.archive.org/details/klersviolinrepos03rugg
Z: 2012 John Chambers <jc:trillian.mit.edu>
M: C|
L: 1/8
K: G
(udc) |\
(cB)AG (DG)BG | (DG)BG (DG)Bd | (cB)AG (DG) Bd | c2A2 A2(dc) |
BGDG cAFA | ecAc fdAd | (gf)ed (Bd)Ac | B2G2 G2 :||: ((3def) |
(gf)gd (Bc)dB | (gf)gd (Bc)dB | cedB GBdB | c2A2 A2(dc) |
BGDG cAFA | ecAc fdAd | (gf)ed (Bd)Ac | B2G2 G2 :|

%%sep 2 1 500

